X: 286
T: Xiao taqing
%%abc-version 2.0
%%abcx-abcm2ps-target-version 5.9.1 (29 Sep 2008)
%%abc-creator hum2abc beta
%%abcx-conversion-date 2013/10/02 07:52:29
%%abc-edited-by Helmut Schaffrath
%%humdrum-veritas 4179737149
%%humdrum-veritas-data 1652321243
%%continueall 1
%%barnumbers 0
L: 1/8
M: 3/4
K: F
c c/ f/ d/ c/ A/ G/ [I:setbarnb 1]| 
c c/ f/ d/ c/ A/ G/ | 
F> G f d/ c/ | 
c/ A/ G/ F/ G z | 
B c B c | 
A F G G/ G/ | 
A F G G/ G/ | 
A F G G/ G/ | 
A F G G/ G/ | 
A> c A c | 
A F G G/ G/ | 
F A G G/ G/ | 
A F G G/ G/ | 
A F G G/ G/ | 
A> A c A | 
c A c A | 
c> A c> A G F | 
[M:2/4]F D C D | 
c2c E | 
G> A F D | 
C4 |]  



